img/service-health.svg

<svg width="86" height="64" viewBox="0 0 86 64" fill="none" xmlns="http://www.w3.org/2000/svg">
<path d="M79.622 20.272C79.622 22.336 79.316 24.352 78.726 26.27H83.868C85.045 26.27 86 27.227 86 28.406C86 29.586 85.045 30.541 83.868 30.541H77.47C77.268 30.541 77.073 30.513 76.888 30.461C76.0053 31.9743 74.9311 33.3675 73.692 34.606L44.972 63.374C44.7741 63.5725 44.539 63.73 44.2802 63.8375C44.0213 63.9449 43.7438 64.0002 43.4635 64.0002C43.1832 64.0002 42.9057 63.9449 42.6468 63.8375C42.388 63.73 42.1529 63.5725 41.955 63.374L13.233 34.606C12.1963 33.5688 11.2752 32.422 10.486 31.186C10.315 31.23 10.136 31.254 9.95 31.254H2.132C1.85176 31.2537 1.57431 31.1983 1.31551 31.0908C1.0567 30.9833 0.821595 30.8259 0.623621 30.6276C0.425646 30.4292 0.268677 30.1938 0.161676 29.9348C0.0546755 29.6758 -0.000261829 29.3983 9.38171e-07 29.118C9.38171e-07 27.938 0.955001 26.982 2.132 26.982H8.447C5.965 19.861 7.56 11.618 13.233 5.93801C15.1066 4.05015 17.3363 2.55313 19.793 1.5338C22.2497 0.514473 24.8843 -0.00687342 27.544 1.15198e-05C32.95 1.15198e-05 38.034 2.10901 41.856 5.93801L43.463 7.54701L45.07 5.93701C46.9438 4.04921 49.1737 2.55231 51.6306 1.53315C54.0874 0.513987 56.7222 -0.0071368 59.382 1.15198e-05C62.0417 -0.00681806 64.6763 0.514553 67.133 1.53388C69.5896 2.55321 71.8194 4.0502 73.693 5.93801C75.5791 7.8172 77.0741 10.0515 78.0918 12.5117C79.1094 14.972 79.6295 17.6096 79.622 20.272ZM70.678 8.95701C69.1987 7.46697 67.4383 6.28548 65.4989 5.48108C63.5595 4.67667 61.4796 4.26536 59.38 4.27101C57.2807 4.26563 55.2012 4.67706 53.2622 5.48146C51.3231 6.28586 49.563 7.46721 48.084 8.95701L44.969 12.077C44.7713 12.2754 44.5364 12.4329 44.2777 12.5403C44.019 12.6478 43.7416 12.7031 43.4615 12.7031C43.1814 12.7031 42.904 12.6478 42.6453 12.5403C42.3866 12.4329 42.1517 12.2754 41.954 12.077L38.84 8.95701C37.3608 7.46718 35.6005 6.28582 33.6613 5.48142C31.7221 4.67703 29.6424 4.26561 27.543 4.27101C25.4437 4.26546 23.3642 4.67682 21.4251 5.48123C19.486 6.28564 17.7259 7.46708 16.247 8.95701C11.173 14.04 10.232 21.718 13.425 27.763H28.236L33.538 16.479C33.783 15.959 34.277 15.634 34.891 15.663C35.1717 15.6764 35.4421 15.7726 35.6681 15.9396C35.8942 16.1065 36.0657 16.3367 36.161 16.601L44.051 38.487L50.542 20.168C50.6364 19.9007 50.8086 19.6678 51.0365 19.4992C51.2643 19.3306 51.5374 19.2341 51.8206 19.2221C52.1038 19.21 52.3842 19.283 52.6255 19.4316C52.8669 19.5802 53.0583 19.7977 53.175 20.056L56.351 27.051H73.852C76.612 21.125 75.554 13.842 70.677 8.95701H70.678ZM16.248 31.586L43.463 58.844L70.678 31.586C71.2253 31.038 71.7323 30.4512 72.195 29.83H55.736C55.179 29.83 54.373 29.573 54.143 29.064L52.046 24.444L45.404 43.189C45.204 43.755 44.67 44.135 44.069 44.136H44.066C43.466 44.136 42.933 43.76 42.729 43.196L34.653 20.798L30.426 29.794C30.192 30.292 29.99 30.541 29.439 30.541H15.293C15.593 30.901 15.912 31.249 16.248 31.586Z" fill="#3172B9"/>
</svg>

<svg width="86" height="64" viewBox="0 0 86 64" fill="none" xmlns="http://www.w3.org/2000/svg"><path d="M79.622 20.272c0 2.064-.306 4.08-.896 5.998h5.142c1.177 0 2.132.957 2.132 2.136 0 1.18-.955 2.135-2.132 2.135H77.47c-.202 0-.397-.027-.582-.08a20.375 20.375 0 0 1-3.196 4.146l-28.72 28.768a2.13 2.13 0 0 1-3.017 0L13.233 34.606a20.264 20.264 0 0 1-2.747-3.42c-.17.044-.35.068-.536.068H2.132A2.134 2.134 0 0 1 0 29.118c0-1.18.955-2.136 2.132-2.136h6.315c-2.482-7.12-.887-15.364 4.786-21.044A20.09 20.09 0 0 1 27.543 0a20.09 20.09 0 0 1 14.313 5.938l1.607 1.61 1.607-1.61A20.09 20.09 0 0 1 59.382 0a20.09 20.09 0 0 1 14.31 5.938 20.155 20.155 0 0 1 5.93 14.334zM70.678 8.957A15.86 15.86 0 0 0 59.38 4.27a15.86 15.86 0 0 0-11.296 4.687l-3.115 3.12a2.128 2.128 0 0 1-3.016 0l-3.114-3.12A15.862 15.862 0 0 0 27.543 4.27a15.857 15.857 0 0 0-11.296 4.687c-5.074 5.083-6.015 12.76-2.822 18.806h14.81L33.54 16.48c.245-.52.74-.846 1.353-.817a1.422 1.422 0 0 1 1.27.938l7.89 21.887 6.492-18.32a1.42 1.42 0 0 1 2.633-.11l3.176 6.994h17.502c2.76-5.925 1.702-13.208-3.175-18.093zm-54.43 22.63 27.215 27.257 27.215-27.258a16.065 16.065 0 0 0 1.517-1.756h-16.46c-.556 0-1.362-.257-1.592-.766l-2.097-4.62-6.642 18.745a1.42 1.42 0 0 1-1.335.946h-.004a1.42 1.42 0 0 1-1.337-.94l-8.077-22.398-4.227 8.996c-.234.498-.436.747-.987.747H15.292c.3.36.62.71.955 1.046z" fill="#3172B9"/></svg>
